X:1
T:Hic Vir Despiciens Mundum
T:Victoria (1535-1611)
T:I will liken him unto a wise man, which built his house upon a rock.
T:Hic Vir Despiciens Mundum
C:Victoria (1535-1611)
Z:I will liken him unto a wise man,
Z:which built his house upon a rock.
%%score [ 1 2 3 4 ]
L:1/8
M:4/4
K:D
V:1 treble nm="Soprano" snm="S."
V:2 treble nm="Alto" snm="A."
V:3 treble-8 transpose=-12 nm="Tenor" snm="T."
V:4 bass nm="Bass" snm="B."
V:1
 E8 | F4 z2 F2 | G4 G2 G2 | F4 F4 | z4 B4- | B2 ^A^G A4 | B4 z2 F2 | G4 G2 G2 | F8 | F4 z2 F2- | %10
w: Hic|vir, de-|spi- ci- ens|mun- dum,|hic|_ _ _ _|vir, de-|spi- ci- ens|mun-|dum et|
 FF A2 F2 ^G2 | A2 B2 G2 F2 | G4 F4- | F4 z4 | z2 F3 F A2 | F4 z2 F2 | DEFG AF B2- | B2 A2 B4 | %18
w: _ ter- re- na tri-|um- * * *|* phans,|_|et ter- re-|na tri-|um- * * * * * *|* * phans,|
 z4 z2 B2 | A2 GF G2 A2 ||[M:3/4] B4 B2 | B3 B B2 | =c4 B2 | B4 A2 ||[M:4/4] F2 B2 G2 A2 | B6 AG | %26
w: tri-|um- * * * *|phans, di-|vi- ti- as|cae- lo|con- fi-|dit o- re et|ma- * *|
 F2 E2 F4 | E4 z2 e2 | d2 B2 c4 | d2 B2 G2 A2 | B6 AG | F4 G4 | F2 B2 G2 A2 | B8 ||[M:3/4] B4 B2 | %35
w: |nu, o-|re et ma-|nu, o- re et|ma- * *||nu, o- re et|ma-|nu, di-|
 B3 B B2 | =c4 B2 | B4 A2 ||[M:4/4] F2 B2 G2 A2 | B6 AG | F2 E2 F4 | E4 z2 e2 | d2 B2 c4 | %43
w: vi- ti- as|cae- lo|con- di-|dit o- re et|ma- * *||nu, o-|re et ma-|
 d2 B2 G2 A2 | B6 AG | F4 G4 | F2 B2 G2 A2 | B8 | B8 |] %49
w: nu, o- re et|ma- * *||nu, o- re et|ma-|nu.|
V:2
 z4 E4- | E2 ^DC D4 | E4 z2 B,2 | D2 CB, C2 C2 | B,2 D4 E2 | F4 z2 F2 | FEDC B,4 | G,2 E,2 B,3 C | %8
w: Hic|_ _ _ _|vir de-|spi- * * * ci-|ens mun- *|dum, de-|spi- * * * *|ci- ens mun- *|
 D4 C4 | z4 B,3 B, | D2 A,2 B,4 | C2 D2 E2 F2- | F2 E2 FEDC | B,2 A,2 G,4 | F,8- | F,8 | %16
w: * dum|et ter-|re- na tri-|um- * * *|* * phans, _ _ _|_ tri- um-|phans,|_|
 z2 F3 F G2 | E2 F2 G4- | G4 F4 | z2 E2 E4 ||[M:3/4] F4 G2 | F3 F F2 | A4 F2 | G4 E2 || %24
w: et ter- re-|na, tri- um-|* phans|tri- um-|phans, di-|vi- ti- as|cae- lo|con- di-|
[M:4/4] ^D2 F2 E2 F2 | (G2 F2) E4 | z4 z2 B,2 | ^G,2 A,2 B,2 =C2- | CB, B,4 ^A,2 | B,4 z4 | z8 | %31
w: dit o- re et|ma- * nu,|o-|re et ma- *||num||
 z2 B,2 G,A,B,C | DEFD E2 E2 | G4 F4 ||[M:3/4] E4 G2 | F3 F F2 | A4 F2 | G4 E2 || %38
w: o- re _ _ _|_ _ _ _ _ et|ma- *|nu, di-|vi- ti- as|cae- lo|con- di-|
[M:4/4] ^D2 F2 E2 F2 | G2 F2 E4 | z4 z2 B,2 | ^G,2 A,2 B,2 =C2- | CB, B,4 ^A,2 | B,4 z4 | z8 | %45
w: dit o- re et|ma- * nu,|o-|re et ma- *||nu,||
 z2 B,2 G,A,B,C | DEFD E2 E2 | G4 F4 | ^G8 |] %49
w: o- re _ _ _|_ _ _ _ _ et|ma- *|nu.|
V:3
 z8 | z8 | z4 B4- | B2 ^A^G A4 | B4 z2 B2 | d2 cB c2 c2 | B2 f2- fedc | B4 G4 | A2 B4 ^A2 | %9
w: ||Hic|_ _ _ _|vir de-|spi- * * * ci-|ens mun- * * * *|||
 Bcde f4 | z8 | z2 B3 B d2 | B2 c2 d2 Bc | de f4 e2 | f2 d4 cB | c2 d2 c4 | B2 d3 d e2 | %17
w: dum, _ _ _ _||et ter- re-|na tri- um- * *||phans, tri- * *|* * um-|phans, et ter- re-|
 c2 d2 G2 EF | GE e4 ^d2 | e8 ||[M:3/4] ^d4 e2 | ^d3 d d2 | e4 ^d2 | (e2 d2) =c2 ||[M:4/4] B4 z4 | %25
w: na tri- um- * *|||phans, di-|vi- ti- as|cae- lo|con- * di-|dit|
 z2 d2 B2 c2 | ^d2 e4 d2 | e8 | z4 z2 f2- | f2 d2 e2 f2- | fedc dB e2- | e2 ^d2 e4 | z2 d2 B2 c2 | %33
w: o- re et|ma- * *|nu,|o-|* re et ma-||* * nu,|o- re et|
 d2 e4 ^d2 ||[M:3/4] e4 e2 | ^d3 d d2 | e4 ^d2 | (e2 d2) =c2 ||[M:4/4] B4 z4 | z2 d2 B2 c2 | %40
w: ma- * *|nu, di-|vi- ti- as|cae- lo|con- * di-|dit|o- re et|
 ^d2 e4 d2 | e8 | z4 z2 f2- | f2 d2 e2 f2- | fedc dB e2- | e2 ^d2 e4 | z2 d2 B2 c2 | d2 e4 ^d2 | %48
w: ma- * *|nu,|o-|* re et ma-||* * nu,|o- re et|ma- * *|
 e8 |] %49
w: nu,|
V:4
 z8 | z8 | E,8 | F,4 z2 F,2 | G,4 G,2 G,2 | F,8 | B,,4 z2 B,,2 | E,4 E,2 E,2 | D,3 E, F,4 | %9
w: ||Hic|vir, de-|spi- ci- ens|mun-|dum, de-|spi- ci- ens|mun- * *|
 B,,2 B,3 B, D2 | B,2 C2 D3 C/B,/ | A,2 G,F, E,2 B,,2 | z4 z2 B,,2- | B,,B,, D,2 B,,2 C,2 | %14
w: dum et ter- re-|na tri- um- * *|* * * * phans,|et|_ ter- re- na tri-|
 D,2 B,,C, D,E,F,G, | A,F, B,4 ^A,2 | B,4 z4 | z4 z2 B,2- | B,B, =C2 A,2 B,2 | =C8 || %20
w: um- * * * * * *||phans,|et|_ ter- re- na tri-|um-|
[M:3/4] B,4 E,2 | B,3 B, B,2 | A,4 B,2 | (E,2 G,2) A,2 ||[M:4/4] B,4 z4 | z2 B,2 G,2 A,2 | %26
w: phans, di-|vi- ti- as|cae- lo|con- * di-|dit|o- re et|
 B,2 =C2 B,4 | E,2 A,2 ^G,2 A,2 | B,2 G,2 F,4 | B,,4 z4 | B,4 G,2 A,2 | B,4 E,4 | z2 B,2 E,2 A,2 | %33
w: ma- * *|nu, o- re et|ma- * *|nu,|o- re et|ma- nu,|o- re et|
 G,3 A, B,4 ||[M:3/4] E,4 E,2 | B,3 B, B,2 | A,4 B,2 | (E,2 G,2) A,2 ||[M:4/4] B,4 z4 | %39
w: ma- * *|nu, di-|vi- ti- as|cae- lo|con- * di-|dit|
 z2 B,2 G,2 A,2 | B,2 =C2 B,4 | E,2 A,2 ^G,2 A,2 | B,2 G,2 F,4 | B,,4 z4 | B,4 G,2 A,2 | B,4 E,4 | %46
w: o- re et|ma- * *|nu, o- re et|ma- * *|nu,|o- re et|ma- nu,|
 z2 B,2 E,2 A,2 | G,3 A, B,4 | E,8 |] %49
w: o- re et|ma- * *|nu,|

